X:1
T:Gravity Falls
T:Gravity Falls 
T:Weirdmageddon Intro - Easy(ish)
T:Arr. Tamara Sanyshyn Peters
C:Arr. Tamara Peters
%%score { 1 | 2 }
L:1/8
M:4/4
K:C
V:1 treble nm="Piano" snm="Pno."
V:2 bass 
V:1
 !5!F2 !3!D2 z2 D2 | F2 D2 z2 D2 | !5!F2 !2!C2 z2 C2 | F2 C2 z2 C2 | !4!E2 !2!^C2 z2 C2 | %5
w: |||||
 E2 ^C2 z2 C2 | [^CE]8 | !1!D2 D4 E2 | F2 F6 | A4 G2 A2 | !1!C8 | !2!D2 !1!D4 E2 | F4 E4 | G4 A4 | %14
w: |||||||||
 G4 F4 | z2 !3!F4 !1!C2 | !5!A2 _G2 F2 E2 | D2 A2 G2 A2 | F2 F2 !1!E2 !2!_E2 | z2 F2 F2 D2 | %20
w: ||||||
 !5!A2 !4!_A2 !2!G2 !5!c2 | !4!A2 !1!^C2 C2 !4!F2 | z2 !2!_B,2 !1!C2 D2 | E2 G2 F2 !2!^C2 | %24
w: ||Bb * *||
 !1!A,2 A,2 !3!^C2 !5!E2 | !4!D2 !3!_D2 !2!C2 !1!B,2 | z4 d4 |] %27
w: A * * *|* * * B|D|
V:2
 z4 !1!A,2 z2 | z4 A,2 z2 | z4 A,2 z2 | z4 A,2 z2 | z4 A,2 z2 | z4 A,2 z2 | A,8 | !5!!1![D,A,]8 | %8
w: ||||||||
w: ||||||||
 [D,A,]8 | !5!!1![C,G,]8 | [C,G,]8 | !5!!1![_B,,F,]8 | [_B,,F,]8 | [C,G,]8 | [C,G,]8 | [D,A,]8 | %16
w: ||||||||
w: ||||||||
 [D,A,]8 | [C,G,]8 | [C,G,]8 | [_B,,F,]8 | [_B,,F,]8 | [A,,E,]8 | [_B,,F,]8 | [C,G,]8 | [A,,E,]8 | %25
w: |||||E||||
w: |||||A||||
 [D,A,]8 | [D,A,]8 |] %27
w: ||
w: ||

